icons/webpack.svg

<!--
  - The MIT License (MIT)
  -
  - Copyright (c) 2015-2024 Elior "Mallowigi" Boukhobza
  -
  - Permission is hereby granted, free of charge, to any person obtaining a copy
  - of this software and associated documentation files (the "Software"), to deal
  - in the Software without restriction, including without limitation the rights
  - to use, copy, modify, merge, publish, distribute, sublicense, and/or sell
  - copies of the Software, and to permit persons to whom the Software is
  - furnished to do so, subject to the following conditions:
  -
  - The above copyright notice and this permission notice shall be included in all
  - copies or substantial portions of the Software.
  -
  - THE SOFTWARE IS PROVIDED "AS IS", WITHOUT WARRANTY OF ANY KIND, EXPRESS OR
  - IMPLIED, INCLUDING BUT NOT LIMITED TO THE WARRANTIES OF MERCHANTABILITY,
  - FITNESS FOR A PARTICULAR PURPOSE AND NONINFRINGEMENT. IN NO EVENT SHALL THE
  - AUTHORS OR COPYRIGHT HOLDERS BE LIABLE FOR ANY CLAIM, DAMAGES OR OTHER
  - LIABILITY, WHETHER IN AN ACTION OF CONTRACT, TORT OR OTHERWISE, ARISING FROM,
  - OUT OF OR IN CONNECTION WITH THE SOFTWARE OR THE USE OR OTHER DEALINGS IN THE
  - SOFTWARE.
  -
  -->

<svg xmlns="http://www.w3.org/2000/svg" width="16px" height="16px" viewBox="0 0 462 512">
  <path fill="#497CE3" data-iconColor="Webpack"
        d="M355.0114136,174.6519165l-124.1871338,71.7220459L106.630249,174.6556396l124.1939697-68.3209229L355.0114136,174.6519165z M241.8120117,265.434021v131.1519165l123.7680664-68.0667725V193.9533691L241.8120117,265.434021z M16.1795044,395.7438965l203.6325073,115.1856079v-89.2358398L92.489502,351.6723633L16.1795044,395.7438965z M219.8120117,396.5859375v-131.166626l-123.7680664-71.472168v134.5722656L219.8120117,396.5859375z M241.8120117,1.0708008v86.1991577l135.4661865,74.5221558l73.5410767-42.4723511L241.8120117,1.0708008z M369.1555786,351.6605225l-127.3435669,70.0331421v89.2357788l203.6576538-115.1998291L369.1555786,351.6605225z M387.5800781,181.2475586v155.6484985l74.0437622,42.7579956V138.4845581L387.5800781,181.2475586z M84.3620605,161.7963867l135.4499512-74.5130005V1.0707397L10.8051758,119.319458L84.3620605,161.7963867z M74.0439453,336.9199219v-155.677063L0,138.4848022v241.197937L74.0439453,336.9199219z"/>
</svg>

<svg xmlns="http://www.w3.org/2000/svg" viewBox="0 0 462 512"><path fill="#497ce3" d="m355.011 174.652-124.187 71.722-124.194-71.718 124.194-68.321zm-113.199 90.782v131.152l123.768-68.067V193.953zM16.18 395.744 219.812 510.93v-89.236L92.49 351.672zm203.632.842V265.419L96.044 193.947V328.52zm22-395.515V87.27l135.466 74.522 73.541-42.472zm127.344 350.59-127.344 70.033v89.235l203.658-115.2zm18.424-170.413v155.648l74.044 42.758v-241.17zM84.362 161.796l135.45-74.513V1.071L10.805 119.319zM74.044 336.92V181.243L0 138.485v241.198z" data-iconColor="Webpack"/></svg>
